images/class_icons/summoner.svg

<svg height="400" viewBox="0 0 400 400" width="400" xmlns="http://www.w3.org/2000/svg"><path d="m191.498.133c-10.951.34-24.812 2.233-37.125 5.073-32.535 7.503-64.97 24.563-88.786 46.698-19.882 18.479-33.765 36.826-45.267 59.819-10.752 21.495-18.278 48.242-19.713 70.058-.284 4.318-.287 32.821-.004 37.18.814 12.52 4.279 29.42 8.938 43.59 24.521 74.575 89.434 127.595 167.615 136.905 7.187.856 40.695.71 47.54-.207 49.118-6.581 91.605-28.882 124.307-65.248 25.564-28.427 42.221-62.937 48.492-100.465 3.141-18.798 3.413-43.578.685-62.416-8.159-56.333-41.071-107.511-89.273-138.819-35.145-22.828-74.128-33.508-117.409-32.168m22.065 21.251c85.668 6.624 155.033 73.492 164.636 158.71 6.468 57.4-14.164 112.342-57.342 152.694-26.178 24.466-62.5 41.204-99.13 45.682-10.629 1.299-26.939 1.594-37.179.672-86.703-7.81-155.034-75.773-163.288-162.408-.542-5.693-.763-22.314-.368-27.733 1.337-18.327 4.807-34.663 10.793-50.809 23.707-63.944 82.034-109.334 149.557-116.384 8.175-.854 24.068-1.062 32.321-.424m-22.942 18.632c-35.553 2.538-65.766 14.437-92.848 36.563-5.222 4.267-15.626 14.487-19.994 19.642-22.003 25.965-35.147 57.718-37.846 91.431-.393 4.911-.29 22.795.158 27.395 1.668 17.125 5.857 33.46 12.579 49.056 2.016 4.675 4.899 10.499 7.283 14.709 3.635 6.421 8.43 13.796 11.845 18.219 2.647 3.429 3.6 4.62 5.399 6.748 26.802 31.694 64.288 51.658 105.394 56.13 11.687 1.271 25.819 1.168 37.315-.272 2.588-.324 9.851-1.493 11.74-1.89 19.994-4.197 38.665-11.693 53.914-21.645.26-.17 1.201-.78 2.092-1.355 42.472-27.448 70.177-75.592 72.55-126.069 2.534-53.941-20.715-103.74-63.736-136.521-17.063-13.002-38.161-23.009-58.814-27.897-9.173-2.171-16.75-3.314-27.343-4.125-3.788-.291-16.237-.366-19.688-.119m20.445 21.123c9.155.528 22.178 3.173 32.524 6.606 43.778 14.525 77.754 49.898 90.608 94.333 6.222 21.509 6.961 46.555 2.019 68.489-6.783 30.11-22.722 56.242-46.878 76.854-8.292 7.075-21.627 15.54-31.039 19.702-7.795 3.447-11.093 4.684-18.556 6.956-3.09.94-10.008 2.765-10.468 2.761-.106 0 .991-.549 2.438-1.219 26.602-12.314 46.207-30.344 60.895-56.003 8.685-15.171 14.867-35.855 15.913-53.235 1.845-30.663-5.175-57.751-21.279-82.118-8.01-12.119-19.345-24.163-30.563-32.473-2.813-2.083-3.486-2.557-6.177-4.348-30.552-20.329-67.292-26.652-104.106-17.917-23.842 5.657-47.295 19.837-65.302 39.481-3.26 3.557-3.221 3.543-1.368.479 2.928-4.841 5.924-9.315 8.719-13.023 12.011-15.929 26.944-28.791 45.265-38.987 15.483-8.617 34.924-14.47 54.226-16.326 1.714-.165 20.311-.175 23.129-.012m-30.751 45.609c12.464.309 18.929 1.309 30.144 4.663 19.223 5.747 38.471 18.494 51.343 34.001 12.43 14.974 19.922 30.407 24.031 49.501.407 1.893.306 1.864-.877-.247-4.991-8.91-8.026-13.385-12.675-18.688-16.216-18.496-37.398-29.874-60.81-32.664-5.055-.602-18.289-.636-22.778-.057-54.719 7.05-92.001 57.007-82.885 111.061 4.939 29.289 22.481 53.359 49.962 68.557 1.318.729 2.38 1.34 2.361 1.357-.145.136-6.247-1.317-9.75-2.322-31.963-9.166-58.097-32.169-71.12-62.598-12.61-29.465-11.582-63.593 2.771-91.971 6.365-12.585 15.609-24.576 25.703-33.343.891-.774 1.697-1.48 1.792-1.57 1.853-1.749 8.61-6.662 12.737-9.261 13.24-8.338 30.126-14.298 44.986-15.876.816-.087 2.517-.268 3.778-.403 2.782-.296 4.265-.314 11.287-.14m29.132 57.41c15.914 2.101 31.27 9.505 42.028 20.264 4.747 4.748 6.634 6.899 9.155 10.439 12.811 17.989 17.015 40.451 11.563 61.792-7.389 28.926-31.65 50.867-61.286 55.426-2.518.387-2.517.352.012-1.399 4.122-2.852 6.612-4.891 9.563-7.831 23.701-23.606 23.645-61.637-.124-85.139-21.191-20.954-53.964-23.203-78.061-5.358-6.044 4.476-11.452 10.483-15.701 17.439-.464.761-.871 1.383-.904 1.383-.15 0 .564-4.599 1.245-8.03 6.321-31.816 33.986-56.479 66.585-59.359 2.574-.228 13.273.023 15.925.373m-27.144 57.436c12.458.758 24.975 9.474 30.91 21.523 8.588 17.435 3.293 37.919-12.741 49.287-10.495 7.441-24.379 9.068-36.437 4.269-22.521-8.963-31.678-35.562-19.351-56.209 6.042-10.121 17.073-17.469 28.393-18.914.88-.113 7.143-.082 9.226.044" fill-rule="evenodd"/></svg>

<svg id="svg" xmlns="http://www.w3.org/2000/svg" xmlns:xlink="http://www.w3.org/1999/xlink" width="400" height="400" viewBox="0, 0, 400,400"><g id="svgg"><path id="path0" d="M191.498 0.133 C 180.547 0.473,166.686 2.366,154.373 5.206 C 121.838 12.709,89.403 29.769,65.587 51.904 C 45.705 70.383,31.822 88.730,20.320 111.723 C 9.568 133.218,2.042 159.965,0.607 181.781 C 0.323 186.099,0.320 214.602,0.603 218.961 C 1.417 231.481,4.882 248.381,9.541 262.551 C 34.062 337.126,98.975 390.146,177.156 399.456 C 184.343 400.312,217.851 400.166,224.696 399.249 C 273.814 392.668,316.301 370.367,349.003 334.001 C 374.567 305.574,391.224 271.064,397.495 233.536 C 400.636 214.738,400.908 189.958,398.180 171.120 C 390.021 114.787,357.109 63.609,308.907 32.301 C 273.762 9.473,234.779 -1.207,191.498 0.133 M213.563 21.384 C 299.231 28.008,368.596 94.876,378.199 180.094 C 384.667 237.494,364.035 292.436,320.857 332.788 C 294.679 357.254,258.357 373.992,221.727 378.470 C 211.098 379.769,194.788 380.064,184.548 379.142 C 97.845 371.332,29.514 303.369,21.260 216.734 C 20.718 211.041,20.497 194.420,20.892 189.001 C 22.229 170.674,25.699 154.338,31.685 138.192 C 55.392 74.248,113.719 28.858,181.242 21.808 C 189.417 20.954,205.310 20.746,213.563 21.384 M190.621 40.016 C 155.068 42.554,124.855 54.453,97.773 76.579 C 92.551 80.846,82.147 91.066,77.779 96.221 C 55.776 122.186,42.632 153.939,39.933 187.652 C 39.540 192.563,39.643 210.447,40.091 215.047 C 41.759 232.172,45.948 248.507,52.670 264.103 C 54.686 268.778,57.569 274.602,59.953 278.812 C 63.588 285.233,68.383 292.608,71.798 297.031 C 74.445 300.460,75.398 301.651,77.197 303.779 C 103.999 335.473,141.485 355.437,182.591 359.909 C 194.278 361.180,208.410 361.077,219.906 359.637 C 222.494 359.313,229.757 358.144,231.646 357.747 C 251.640 353.550,270.311 346.054,285.560 336.102 C 285.820 335.932,286.761 335.322,287.652 334.747 C 330.124 307.299,357.829 259.155,360.202 208.678 C 362.736 154.737,339.487 104.938,296.466 72.157 C 279.403 59.155,258.305 49.148,237.652 44.260 C 228.479 42.089,220.902 40.946,210.309 40.135 C 206.521 39.844,194.072 39.769,190.621 40.016 M211.066 61.139 C 220.221 61.667,233.244 64.312,243.590 67.745 C 287.368 82.270,321.344 117.643,334.198 162.078 C 340.420 183.587,341.159 208.633,336.217 230.567 C 329.434 260.677,313.495 286.809,289.339 307.421 C 281.047 314.496,267.712 322.961,258.300 327.123 C 250.505 330.570,247.207 331.807,239.744 334.079 C 236.654 335.019,229.736 336.844,229.276 336.840 C 229.170 336.840,230.267 336.291,231.714 335.621 C 258.316 323.307,277.921 305.277,292.609 279.618 C 301.294 264.447,307.476 243.763,308.522 226.383 C 310.367 195.720,303.347 168.632,287.243 144.265 C 279.233 132.146,267.898 120.102,256.680 111.792 C 253.867 109.709,253.194 109.235,250.503 107.444 C 219.951 87.115,183.211 80.792,146.397 89.527 C 122.555 95.184,99.102 109.364,81.095 129.008 C 77.835 132.565,77.874 132.551,79.727 129.487 C 82.655 124.646,85.651 120.172,88.446 116.464 C 100.457 100.535,115.390 87.673,133.711 77.477 C 149.194 68.860,168.635 63.007,187.937 61.151 C 189.651 60.986,208.248 60.976,211.066 61.139 M180.315 106.748 C 192.779 107.057,199.244 108.057,210.459 111.411 C 229.682 117.158,248.930 129.905,261.802 145.412 C 274.232 160.386,281.724 175.819,285.833 194.913 C 286.240 196.806,286.139 196.777,284.956 194.666 C 279.965 185.756,276.930 181.281,272.281 175.978 C 256.065 157.482,234.883 146.104,211.471 143.314 C 206.416 142.712,193.182 142.678,188.693 143.257 C 133.974 150.307,96.692 200.264,105.808 254.318 C 110.747 283.607,128.289 307.677,155.770 322.875 C 157.088 323.604,158.150 324.215,158.131 324.232 C 157.986 324.368,151.884 322.915,148.381 321.910 C 116.418 312.744,90.284 289.741,77.261 259.312 C 64.651 229.847,65.679 195.719,80.032 167.341 C 86.397 154.756,95.641 142.765,105.735 133.998 C 106.626 133.224,107.432 132.518,107.527 132.428 C 109.380 130.679,116.137 125.766,120.264 123.167 C 133.504 114.829,150.390 108.869,165.250 107.291 C 166.066 107.204,167.767 107.023,169.028 106.888 C 171.810 106.592,173.293 106.574,180.315 106.748 M209.447 164.158 C 225.361 166.259,240.717 173.663,251.475 184.422 C 256.222 189.170,258.109 191.321,260.630 194.861 C 273.441 212.850,277.645 235.312,272.193 256.653 C 264.804 285.579,240.543 307.520,210.907 312.079 C 208.389 312.466,208.390 312.431,210.919 310.680 C 215.041 307.828,217.531 305.789,220.482 302.849 C 244.183 279.243,244.127 241.212,220.358 217.710 C 199.167 196.756,166.394 194.507,142.297 212.352 C 136.253 216.828,130.845 222.835,126.596 229.791 C 126.132 230.552,125.725 231.174,125.692 231.174 C 125.542 231.174,126.256 226.575,126.937 223.144 C 133.258 191.328,160.923 166.665,193.522 163.785 C 196.096 163.557,206.795 163.808,209.447 164.158 M182.303 221.594 C 194.761 222.352,207.278 231.068,213.213 243.117 C 221.801 260.552,216.506 281.036,200.472 292.404 C 189.977 299.845,176.093 301.472,164.035 296.673 C 141.514 287.710,132.357 261.111,144.684 240.464 C 150.726 230.343,161.757 222.995,173.077 221.550 C 173.957 221.437,180.220 221.468,182.303 221.594 " stroke="none" fill="#000000" fill-rule="evenodd"></path></g></svg>
